X:1
T:On, Toilers, Onward
T:On, Toilers, Onward
T:Agnes Claire Worrall Woolston
T:Agnes Claire Worrall Woolston, 1898
T:Public Domain Courtesy of the Cyber Hymnal™
T:Public Domain Courtesy of the Cyber Hymnal™
C:Agnes Claire Worrall Woolston
Z:Public Domain
Z:Courtesy of the Cyber Hymnal™
%%score ( 1 2 ) ( 3 4 )
L:1/8
Q:1/4=95
M:4/4
K:Ab
V:1 treble 
V:2 treble 
V:3 bass 
V:4 bass 
V:1
 [CE][DF][CE] | [Ec]2 [CE]3 [CE][DF][CE] | [Dd]2 [DE]3 [DE][DF][DF] | [DG]2 [DF]2 [B,E]2 [B,D]2 | %4
w: 1.~On, toil- ers,|on- ward, ne’er look- ing|down- ward, Re- joic- ing,|ev- er keep thy|
w: 2.~Go forth, O|toil- ers, glad ser- vice|giv- ing, In low- ly|plac- es giv- en|
w: 3.~Then on- ward,|toil- ers, in shade or|glad- ness, With stea- dy|pur- pose ev- er|
 [A,C][DF] [CE]3 [CE][DF][CE] | [CA]2 [CA]3 [=EG][EA][EB] | [Ac]2 [Ac]3 [Ac][A=B][Ac] | %7
w: eye a- bove, For God is|o’er us, He goes be-|fore us; His ban- ner|
w: o’er to sin; Till, free from|sor- row, shall fair to-|mor- row Re- joice with|
w: strong and true, The har- vest|glor- ious, in strife vic-|tor- ious, The la- borer|
 [Ge]2 [Gd]2 [DB]2 [DE]2 | ([CA]4- [CA] EAB) ||"^Refrain" [Ec]2 [CA]2 [Ec]3 [CA] | %10
w: o- ver us is|love. * * * *||
w: sheaves all gar- nered|in. * * * *|On, march on with|
w: crowned when toil is|thro’. * * * *||
 [DB][DA][DG][DF] [CE]CEA | [Ac]2 [EA]2 [Ae]3 [Ac] | [Bd][Ac][GB][^F=A] [GB]EAB | %13
w: |||
w: chor- us loud and strong, O sing it,|on, march on, For|right a- gainst the wrong, O ring it,|
w: |||
 [Ac]2 [EA]2 [CE]3 [CA] | [CA][CA][_GB][Gc] !fermata![Fd]AGA | cBGE [Ec][EB][DG][DE] | %16
w: |||
w: on march on, Our|watch- word in the fray, With God in|sight we’ll work for right And win the|
w: |||
 A4- !fermata![CA] |] %17
w: |
w: day. *|
w: |
V:2
 x3 | x8 | x8 | x8 | x8 | x8 | x8 | x8 | x8 || x8 | x5 CEA | x8 | x5 E=AB | x8 | x5 A_GA | %15
 cBGE x4 | C C D D x |] %17
V:3
 [A,,A,][A,,A,][A,,A,] | [A,,A,]2 [A,,A,]2 [A,,A,][A,,A,][A,,A,][A,,A,] | %2
 [E,G,]2 [E,B,]2 [E,G,][E,G,][E,A,][E,A,] | [E,B,]2 [E,B,]2 [E,G,]2 [E,G,]2 | %4
 [A,,E,][A,,A,] [A,,A,]3 [A,,A,][A,,A,][A,,A,] | [F,A,]2 [F,C]3 [=E,^C][E,C][E,C] | %6
 [E,E]2 [E,E]3 [E,E][E,E][E,E] | [E,B,]2 [E,B,]2 [E,G,]2 [E,G,]2 | [A,,E,]4- [A,,E,] z3 || %9
 [A,,A,]2 [A,,A,]2 [A,,A,]3 [A,,E,] | [D,F,][D,F,][D,A,][D,A,] [A,,A,] z3 | %11
 [A,E]2 [A,C]2 [A,C]3 [A,E] | [E,E][E,E][E,D][E,C] [E,D] z3 | [A,E]2 [A,C]2 A,3 A, | %14
 [_G,A,][G,A,][E,A,][E,A,] !fermata![D,A,]A,G,A, | CB,G,E, [E,G,][E,D][E,B,][E,G,] | %16
 (A,E,F,F, !fermata![A,,E,]) |] %17
V:4
 x3 | x8 | x8 | x8 | x8 | x8 | x8 | x8 | x8 || x8 | x8 | x8 | x8 | x4 A,3 A, | x5 A,_G,A, | %15
 CB,G,E, x4 | A,,4- x |] %17

